X:1
%
T:Miss Ross’ Strathspey—of Elgin [1]
L:1/8
M:C
S:Marshall – 1822 Collection
Z:AK/Fiddler’s Companion
K:D
F|D>AF>A D>AF>A|E<=c c>G E2 CE|D>AF>A D>AF>A|
D<d d>A F2 D:||f|d>fA>f d>FA>f|=c>de>f ~g2 a/g/f/e/|
d>fA>f d>fA>f|d>ef>g ~a2 b/a/g/f/|d>fA>f d>FA>f|
=c>de>f ~g2 a/g/f/e/|a>fg>e f>de>c|d<A B>G F2 D2||

